public/images/hashed/7eabfedc3beebfece13ccdee1749c680.svg

<?xml version="1.0" encoding="UTF-8"?>
<svg width="80px" height="80px" viewBox="0 0 80 80" version="1.1" xmlns="http://www.w3.org/2000/svg" xmlns:xlink="http://www.w3.org/1999/xlink">
    <!-- Generator: Sketch 64 (93537) - https://sketch.com -->
    <title>Icon-Architecture/64/Arch_AWS-CodeDeploy_64</title>
    <desc>Created with Sketch.</desc>
    <defs>
        <linearGradient x1="0%" y1="100%" x2="100%" y2="0%" id="linearGradient-1">
            <stop stop-color="#2E27AD" offset="0%"></stop>
            <stop stop-color="#527FFF" offset="100%"></stop>
        </linearGradient>
    </defs>
    <g id="Icon-Architecture/64/Arch_AWS-CodeDeploy_64" stroke="none" stroke-width="1" fill="none" fill-rule="evenodd">
        <g id="Icon-Architecture-BG/64/Developer-Tools" fill="url(#linearGradient-1)">
            <rect id="Rectangle" x="0" y="0" width="80" height="80"></rect>
        </g>
        <path d="M28.0003116,66.9823009 L54.0013797,66.9823009 L54.0013797,49.8318584 L28.0003116,49.8318584 L28.0003116,66.9823009 Z M55.0014208,47.8141593 L27.0002705,47.8141593 C26.4472478,47.8141593 26.0002294,48.2661239 26.0002294,48.8230088 L26.0002294,67.9911504 C26.0002294,68.5480354 26.4472478,69 27.0002705,69 L55.0014208,69 C55.5544435,69 56.0014619,68.5480354 56.0014619,67.9911504 L56.0014619,48.8230088 C56.0014619,48.2661239 55.5544435,47.8141593 55.0014208,47.8141593 L55.0014208,47.8141593 Z M37.0956852,65.1986549 L43.151934,51.3269735 L44.9820092,52.141115 L38.9257604,66.0127965 L37.0956852,65.1986549 Z M48.5371552,58.5109912 L45.1310153,55.1666549 L46.5250726,53.7199646 L50.771247,57.888531 C50.9802556,58.0943363 51.0902601,58.3828673 51.0712593,58.6774513 C51.0522586,58.9720354 50.9062526,59.2434159 50.6722429,59.4199646 L45.9250479,63.0003717 L44.7279988,61.3852035 L48.5371552,58.5109912 Z M31.3904509,58.1589027 C31.1804422,57.9530973 31.0704377,57.6655752 31.0894385,57.3709912 C31.1084393,57.0764071 31.2544453,56.8050265 31.4884549,56.6284779 L36.2356499,53.0480708 L37.4336991,54.6632389 L33.6235426,57.5364425 L37.0306826,60.8817876 L35.6366253,62.3284779 L31.3904509,58.1589027 Z M66.0438744,35.0501947 C64.1247956,33.1777699 61.5716907,32.1467257 58.8545791,32.1467257 C55.3124336,32.1467257 52.4193147,33.4077876 50.6262411,35.5072035 C50.186223,25.8393982 47.9761322,18.0611681 44.8160024,14.3566726 C56.126467,16.0656637 64.7108196,24.4219646 66.6098976,35.6080885 C66.42289,35.4204425 66.2328822,35.2348142 66.0438744,35.0501947 L66.0438744,35.0501947 Z M48.0661359,35.3972389 L47.7081212,35.0501947 C45.7890423,33.1777699 43.2309373,32.1467257 40.5068254,32.1467257 C37.041683,32.1467257 34.2215672,33.3129558 32.4274935,35.2993805 C33.0875206,22.588885 36.9826806,14.0247611 40.5158257,14.0176991 C40.521826,14.0176991 40.5258261,14.018708 40.5328264,14.018708 C44.1239739,14.0398938 48.0871368,22.9016283 48.6421596,35.9672389 C48.4541518,35.7785841 48.2691442,35.5929558 48.0661359,35.3972389 L48.0661359,35.3972389 Z M30.3874097,36.0711504 C30.1203987,35.792708 29.8393872,35.5162832 29.542375,35.2257345 L29.3613675,35.0501947 C27.4422887,33.1777699 24.8851836,32.1467257 22.1600717,32.1467257 C19.0669446,32.1467257 16.4588375,33.0839469 14.6547634,34.7203009 C17.031861,24.0043009 25.4342062,16.0454867 36.2186492,14.3617168 C33.000517,18.1398584 30.7664252,26.1450796 30.3874097,36.0711504 L30.3874097,36.0711504 Z M40.5268262,12 C24.8561824,12 12.601679,23.9417522 12.0006544,39.7806903 C11.9866538,40.158 12.1986625,40.5 12.5076752,40.6896637 L22.7500959,47.4237345 L23.8421408,45.7329027 L14.1537428,39.3721062 C14.6643763,37.2137542 16.240929,35.5879534 18.5070311,34.7649184 C19.5827484,34.3742241 20.8138485,34.1644248 22.1600717,34.1644248 C24.3631622,34.1644248 26.427247,34.9936991 27.9713104,36.5009204 L28.1523178,36.677469 C29.5313745,38.0212566 30.3484081,40.4757876 30.3484081,40.4848673 C30.3554083,40.5464071 31.7174643,45.6400885 31.7174643,45.6400885 L33.6465435,45.1124602 L32.3484902,40.2760354 L32.3564906,40.1529558 C32.8405104,35.7372212 36.8836765,34.1644248 40.5068254,34.1644248 C42.7099159,34.1644248 44.7730006,34.9936991 46.317064,36.5009204 C46.317064,36.5009204 48.4971536,38.1756106 48.6571602,40.1479115 L48.6661605,40.2820885 L47.3551067,45.1094336 L49.285186,45.643115 L50.649242,40.6129912 C50.6572423,40.5756637 50.6602425,40.5322832 50.6652427,40.4889027 C50.9362538,36.6350973 54.1473857,34.1644248 58.8545791,34.1644248 C61.0496692,34.1644248 63.1087538,34.9936991 64.6528173,36.5009204 C65.8528666,37.6711858 66.6989013,38.5569558 66.933911,39.4275929 L58.2945561,45.495823 L59.437603,47.152354 L68.5729783,40.7340531 C68.8219885,40.5373274 69.0009959,39.829115 69,39.7907788 C68.7199843,23.9478053 56.4974822,12.0110973 40.5268262,12 Z" id="AWS-CodeDeploy_Icon_64_Squid" fill="#FFFFFF"></path>
    </g>
</svg>

<svg xmlns="http://www.w3.org/2000/svg" width="80" height="80"><defs><linearGradient id="a" x1="0%" x2="100%" y1="100%" y2="0%"><stop offset="0%" stop-color="#2E27AD"/><stop offset="100%" stop-color="#527FFF"/></linearGradient></defs><g fill="none" fill-rule="evenodd"><path fill="url(#a)" d="M0 0h80v80H0z"/><path fill="#FFF" d="M28 66.982h26.001v-17.15h-26v17.15Zm27.001-19.168h-28c-.554 0-1 .452-1 1.009v19.168c0 .557.446 1.009 1 1.009h28c.553 0 1-.452 1-1.009V48.823c0-.557-.447-1.009-1-1.009ZM37.096 65.2l6.056-13.872 1.83.814-6.056 13.872-1.83-.814Zm11.441-6.688-3.406-3.344 1.394-1.447 4.246 4.169a1.016 1.016 0 0 1-.099 1.531L45.925 63l-1.197-1.615 3.81-2.874Zm-17.147-.352a1.012 1.012 0 0 1 .098-1.53l4.748-3.58 1.198 1.614-3.81 2.873 3.407 3.346-1.394 1.446-4.247-4.17ZM66.044 35.05c-1.92-1.872-4.472-2.903-7.19-2.903-3.542 0-6.435 1.26-8.228 3.36-.44-9.668-2.65-17.446-5.81-21.15 11.31 1.709 19.895 10.065 21.794 21.251a59.149 59.149 0 0 0-.566-.558Zm-17.978.347-.358-.347c-1.919-1.872-4.477-2.903-7.201-2.903-3.465 0-6.285 1.166-8.08 3.152.66-12.71 4.556-21.274 8.089-21.281h.017c3.591.022 7.554 8.884 8.11 21.95a39.568 39.568 0 0 0-.577-.57Zm-17.679.674a37.608 37.608 0 0 0-.845-.845l-.18-.176c-1.92-1.872-4.477-2.903-7.202-2.903-3.093 0-5.701.937-7.505 2.573 2.377-10.716 10.78-18.675 21.564-20.358-3.218 3.778-5.453 11.783-5.832 21.71ZM40.527 12C24.857 12 12.602 23.942 12 39.78c-.014.378.198.72.507.91l10.242 6.734 1.092-1.691-9.688-6.36c.51-2.16 2.087-3.785 4.353-4.608 1.076-.39 2.307-.6 3.653-.6 2.203 0 4.267.829 5.811 2.336l.181.176c1.38 1.344 2.196 3.799 2.196 3.808.007.061 1.37 5.155 1.37 5.155l1.929-.528-1.299-4.836.008-.123c.485-4.416 4.528-5.989 8.15-5.989 2.204 0 4.267.83 5.811 2.337 0 0 2.18 1.675 2.34 3.647l.01.134-1.312 4.827 1.93.534 1.364-5.03c.008-.037.011-.08.016-.124.271-3.854 3.482-6.325 8.19-6.325 2.195 0 4.254.83 5.798 2.337 1.2 1.17 2.046 2.056 2.28 2.927l-8.638 6.068 1.143 1.656 9.135-6.418c.249-.197.428-.905.427-.943C68.72 23.948 56.497 12.01 40.527 12Z"/></g></svg>
